.local/share/icons/Gruvbox-Plus-Dark/apps/16/com.github.bartzaalberg.lottery.svg

<svg width="16" height="16" version="1.1" xmlns="http://www.w3.org/2000/svg">
  <defs>
    <style id="current-color-scheme" type="text/css">.ColorScheme-Text { color:#ebdbb2; } .ColorScheme-Highlight { color:#458588; }</style>
  </defs>
  <path class="ColorScheme-Text" d="m7.233 3.734c-0.648 1.098-1.297 2.194-1.945 3.236-0.334 0.509-0.836 0.832-1.337 0.832-1.757-0.012-1.718-0.96-2.465-2.007 0.126-0.141 0.198-0.328 0.198-0.532 0-0.465-0.377-0.842-0.842-0.842s-0.842 0.377-0.842 0.842c0 0.445 0.346 0.81 0.783 0.84l0.047 0.132c0.334 1.301 0.613 2.716 0.947 4.187 0.056 0.227 0.223 0.396 0.446 0.396 1.895 0.227 3.845 0.34 5.796 0.34 1.95 0 3.9-0.113 5.795-0.34 0.167 0 0.334-0.169 0.39-0.396 0.334-1.471 0.613-2.886 0.948-4.187l0.044-0.131c0.447-0.02 0.804-0.389 0.804-0.841 0-0.465-0.377-0.842-0.842-0.842s-0.842 0.377-0.842 0.842c0 0.241 0.101 0.458 0.27 0.605-0.857 0.928-1.202 1.873-2.611 1.934-0.557 0-1.003-0.323-1.337-0.832-0.64-1.028-1.279-2.107-1.918-3.189 0.327-0.232 0.543-0.613 0.543-1.044 0-0.697-0.566-1.263-1.263-1.263s-1.263 0.566-1.263 1.263c0 0.407 0.193 0.77 0.496 0.997zm6.662 8.621c0-0.247-0.161-0.395-0.429-0.346-1.787 0.246-3.614 0.495-5.441 0.496-1.843 1e-3 -3.688-0.248-5.491-0.496-0.214-0.049-0.429 0.149-0.429 0.346v1.036c0 0.247 0.161 0.494 0.429 0.543 3.59 0.79 7.342 0.79 10.93 0 0.214-0.049 0.429-0.296 0.429-0.543v-1.036z" fill="currentColor"/>
</svg>

<svg xmlns="http://www.w3.org/2000/svg" style="isolation:isolate" width="16" height="16" viewBox="0 0 16 16">
 <defs>
  <style id="current-color-scheme" type="text/css">
   .ColorScheme-Text { color:#ebdbb2; } .ColorScheme-Highlight { color:#458588; }
  </style>
  <linearGradient id="arrongin" x1="0%" x2="0%" y1="0%" y2="100%">
   <stop offset="0%" style="stop-color:#d79921; stop-opacity:1"/>
   <stop offset="100%" style="stop-color:#b57614; stop-opacity:1"/>
  </linearGradient>
  <linearGradient id="aurora" x1="0%" x2="0%" y1="0%" y2="100%">
   <stop offset="0%" style="stop-color:#83a598; stop-opacity:1"/>
   <stop offset="100%" style="stop-color:#b16286; stop-opacity:1"/>
  </linearGradient>
  <linearGradient id="fitdance" x1="0%" x2="0%" y1="0%" y2="100%">
   <stop offset="0%" style="stop-color:#8ec07c; stop-opacity:1"/>
   <stop offset="100%" style="stop-color:#458588; stop-opacity:1"/>
  </linearGradient>
  <linearGradient id="oomox" x1="0%" x2="0%" y1="0%" y2="100%">
   <stop offset="0%" style="stop-color:#458588; stop-opacity:1"/>
   <stop offset="100%" style="stop-color:#928374; stop-opacity:1"/>
  </linearGradient>
  <linearGradient id="rainblue" x1="0%" x2="0%" y1="0%" y2="100%">
   <stop offset="0%" style="stop-color:#b8bb26; stop-opacity:1"/>
   <stop offset="100%" style="stop-color:#076678; stop-opacity:1"/>
  </linearGradient>
  <linearGradient id="sunrise" x1="0%" x2="0%" y1="0%" y2="100%">
   <stop offset="0%" style="stop-color: #fe8019; stop-opacity:1"/>
   <stop offset="100%" style="stop-color: #fabd2f; stop-opacity:1"/>
  </linearGradient>
  <linearGradient id="telinkrin" x1="0%" x2="0%" y1="0%" y2="100%">
   <stop offset="0%" style="stop-color: #83a598; stop-opacity:1"/>
   <stop offset="100%" style="stop-color: #83a598; stop-opacity:1"/>
  </linearGradient>
  <linearGradient id="60spsycho" x1="0%" x2="0%" y1="0%" y2="100%">
   <stop offset="0%" style="stop-color: #fb4934; stop-opacity:1"/>
   <stop offset="25%" style="stop-color: #fabd2f; stop-opacity:1"/>
   <stop offset="50%" style="stop-color: #fe8019; stop-opacity:1"/>
   <stop offset="100%" style="stop-color: #689d6a; stop-opacity:1"/>
  </linearGradient>
  <linearGradient id="90ssummer" x1="0%" x2="0%" y1="0%" y2="100%">
   <stop offset="0%" style="stop-color: #b16286; stop-opacity:1"/>
   <stop offset="20%" style="stop-color: #8ec07c; stop-opacity:1"/>
   <stop offset="50%" style="stop-color: #fabd2f; stop-opacity:1"/>
   <stop offset="100%" style="stop-color: #458588; stop-opacity:1"/>
  </linearGradient>
  <linearGradient id="cyberneon" x1="0%" x2="0%" y1="0%" y2="100%">
    <stop offset="0" style="stop-color:#83a598; stop-opacity:1"/>
    <stop offset="1" style="stop-color:#b16286; stop-opacity:1"/>
  </linearGradient>
 </defs>
 <path style="fill:currentColor" class="ColorScheme-Text" fill-rule="evenodd" d="M 7.233 3.734 C 6.585 4.832 5.936 5.928 5.288 6.97 C 4.954 7.479 4.452 7.802 3.951 7.802 C 2.194 7.79 2.233 6.842 1.486 5.795 C 1.612 5.654 1.684 5.467 1.684 5.263 C 1.684 4.798 1.307 4.421 0.842 4.421 C 0.377 4.421 0 4.798 0 5.263 C 0 5.708 0.346 6.073 0.783 6.103 L 0.783 6.103 L 0.83 6.235 C 1.164 7.536 1.443 8.951 1.777 10.422 C 1.833 10.649 2 10.818 2.223 10.818 C 4.118 11.045 6.068 11.158 8.019 11.158 L 8.019 11.158 C 9.969 11.158 11.919 11.045 13.814 10.818 C 13.981 10.818 14.148 10.649 14.204 10.422 C 14.538 8.951 14.817 7.536 15.152 6.235 L 15.196 6.104 L 15.196 6.104 C 15.643 6.084 16 5.715 16 5.263 C 16 4.798 15.623 4.421 15.158 4.421 C 14.693 4.421 14.316 4.798 14.316 5.263 C 14.316 5.504 14.417 5.721 14.586 5.868 C 13.729 6.796 13.384 7.741 11.975 7.802 C 11.418 7.802 10.972 7.479 10.638 6.97 C 9.998 5.942 9.359 4.863 8.72 3.781 C 9.047 3.549 9.263 3.168 9.263 2.737 C 9.263 2.04 8.697 1.474 8 1.474 C 7.303 1.474 6.737 2.04 6.737 2.737 C 6.737 3.144 6.93 3.507 7.233 3.734 Z M 13.895 12.355 C 13.895 12.108 13.734 11.96 13.466 12.009 C 11.679 12.255 9.852 12.504 8.025 12.505 C 6.182 12.506 4.337 12.257 2.534 12.009 C 2.32 11.96 2.105 12.158 2.105 12.355 L 2.105 13.391 C 2.105 13.638 2.266 13.885 2.534 13.934 C 6.124 14.724 9.876 14.724 13.466 13.934 C 13.68 13.885 13.895 13.638 13.895 13.391 L 13.895 12.355 L 13.895 12.355 L 13.895 12.355 L 13.895 12.355 Z"/>
</svg>
